assets/images/icon-flow.svg

<svg width="16" height="17" viewBox="0 0 16 17" fill="none" xmlns="http://www.w3.org/2000/svg">
<path fill-rule="evenodd" clip-rule="evenodd" d="M13.6 6.10048C14.9255 6.10048 16 5.02596 16 3.70048C16 2.37499 14.9255 1.30048 13.6 1.30048C12.5373 1.30048 11.6359 1.99122 11.3203 2.94824C8.9912 3.27839 7.2 5.28026 7.2 7.70048V9.30048C7.2 10.8487 6.10053 12.1401 4.63979 12.4365C4.29294 11.5379 3.42091 10.9005 2.4 10.9005C1.07452 10.9005 0 11.975 0 13.3005C0 14.626 1.07452 15.7005 2.4 15.7005C3.46274 15.7005 4.36414 15.0097 4.67975 14.0527C7.0088 13.7226 8.8 11.7207 8.8 9.30048V7.70048C8.8 6.15227 9.89947 4.86086 11.3602 4.56445C11.7071 5.46303 12.5791 6.10048 13.6 6.10048ZM13.6 4.50048C14.0418 4.50048 14.4 4.1423 14.4 3.70048C14.4 3.25865 14.0418 2.90048 13.6 2.90048C13.1582 2.90048 12.8 3.25865 12.8 3.70048C12.8 4.1423 13.1582 4.50048 13.6 4.50048ZM2.4 14.1005C2.84183 14.1005 3.2 13.7423 3.2 13.3005C3.2 12.8586 2.84183 12.5005 2.4 12.5005C1.95817 12.5005 1.6 12.8586 1.6 13.3005C1.6 13.7423 1.95817 14.1005 2.4 14.1005Z" fill="#FA9531"/>
</svg>

<svg xmlns="http://www.w3.org/2000/svg" width="16" height="17" fill="none" xmlns:v="https://vecta.io/nano"><path fill-rule="evenodd" d="M13.6 6.1a2.4 2.4 0 1 0 0-4.8 2.4 2.4 0 0 0-2.28 1.648A4.8 4.8 0 0 0 7.2 7.7v1.6a3.2 3.2 0 0 1-2.56 3.136 2.4 2.4 0 0 0-2.24-1.536 2.4 2.4 0 1 0 0 4.8 2.4 2.4 0 0 0 2.28-1.648A4.8 4.8 0 0 0 8.8 9.3V7.7a3.2 3.2 0 0 1 2.56-3.136A2.4 2.4 0 0 0 13.6 6.1zm0-1.6a.8.8 0 0 0 0-1.6.8.8 0 0 0 0 1.6zm-11.2 9.6a.8.8 0 0 0 0-1.6.8.8 0 0 0 0 1.6z" fill="#fa9531"/></svg>
